resources/svg/play-list-2-line.svg

<svg xmlns="http://www.w3.org/2000/svg" viewBox="0 0 24 24" fill="currentColor">
    <g>
        <path fill="none" d="M0 0H24V24H0z"/>
        <path d="M22 18v2H2v-2h20zM2 3.5l8 5-8 5v-10zM22 11v2H12v-2h10zM4 7.108v2.784L6.226 8.5 4 7.108zM22 4v2H12V4h10z"/>
    </g>
</svg>

<svg fill="currentColor" viewBox="0 0 24 24" xmlns="http://www.w3.org/2000/svg"><path d="M22 18V20H2V18H22ZM2 3.5L10 8.5L2 13.5V3.5ZM22 11V13H12V11H22ZM4 7.1085V9.8915L6.22641 8.5L4 7.1085ZM22 4V6H12V4H22Z"/></svg>
